!!!SOCIAL_FUNCTION:	songs for success in ball game
!!!PDT:	1956
!!!OTL: No_222_Ball_Game_Song_(e).krn
!!!LANG: Non-Tone
!!!LING_GROUP: Muskogean
!!!REG: Florida
**kern
*staff1
=1-
=
*clefF4
*k[b-]
*M2/4
16c\LL
16c\J
8c\J
8A\L
8c\J
=2||
*M3/4
16A\LL
16A\J
8G\J
(4F\
8C/)
8r
=3||
*M2/4
16c\LL
16c\J
8c\J
8A\L
8G\J
=4||
*M3/4
16F\LL
16F\J
8G\J
(4F\
8C/)
8r
=5
*M2/4
8C/L
8F/J
8F\L
8A\J
=6||
*M3/4
8A\L
8G\J
(4F\
8C/)
8r
==:|!
*-
